remix/Media/stop-line.svg

<svg viewBox="0 0 24 24" fill="currentColor" xmlns="http://www.w3.org/2000/svg"><path d="M7 7V17H17V7H7ZM6 5H18C18.5523 5 19 5.44772 19 6V18C19 18.5523 18.5523 19 18 19H6C5.44772 19 5 18.5523 5 18V6C5 5.44772 5.44772 5 6 5Z"/></svg>

<svg viewBox="0 0 24 24" xmlns="http://www.w3.org/2000/svg"><path fill="none" d="M0 0h24v24H0Z"/><path d="M7 7v10h10V7H7ZM6 5h12v0c.55 0 1 .44 1 1v12 0c0 .55-.45 1-1 1H6v0c-.56 0-1-.45-1-1V6v0c0-.56.44-1 1-1Z"/></svg>
